src/lib/packages/icons/src/assets/line/user-search.svg

<svg xmlns="http://www.w3.org/2000/svg" width="24" height="24" fill="none"><path fill="currentColor" d="M10.009 10.75a4.255 4.255 0 0 0 4.25-4.25 4.255 4.255 0 0 0-4.25-4.25 4.255 4.255 0 0 0-4.25 4.25 4.255 4.255 0 0 0 4.25 4.25Zm0-7a2.752 2.752 0 0 1 2.75 2.75 2.752 2.752 0 0 1-2.75 2.75 2.752 2.752 0 0 1-2.75-2.75 2.752 2.752 0 0 1 2.75-2.75Zm2.872 10.06a5.514 5.514 0 0 0-.881-.06H8c-3.943 0-4.25 3.269-4.25 4.27 0 1.563.673 2.23 2.25 2.23h5a.75.75 0 0 1 0 1.5H6c-2.418 0-3.75-1.325-3.75-3.73 0-2.662 1.506-5.77 5.75-5.77h4c.421 0 .787.026 1.119.08.409.065.688.45.621.859a.755.755 0 0 1-.859.621Zm9.649 7.66-1.831-1.831a4.055 4.055 0 0 0 .718-2.305 4.088 4.088 0 0 0-4.084-4.083 4.088 4.088 0 0 0-4.083 4.083 4.088 4.088 0 0 0 4.083 4.083 4.06 4.06 0 0 0 2.305-.718l1.831 1.832a.748.748 0 0 0 1.06 0 .75.75 0 0 0 .001-1.061Zm-7.78-4.137a2.586 2.586 0 0 1 2.583-2.583 2.586 2.586 0 0 1 2.584 2.583 2.586 2.586 0 0 1-2.584 2.583 2.585 2.585 0 0 1-2.583-2.583Z"/></svg>

<svg width="24" height="24" viewBox="0 0 24 24" fill="none" xmlns="http://www.w3.org/2000/svg">
<path d="M10.009 10.75C12.353 10.75 14.259 8.843 14.259 6.5C14.259 4.157 12.353 2.25 10.009 2.25C7.66503 2.25 5.75903 4.157 5.75903 6.5C5.75903 8.843 7.66503 10.75 10.009 10.75ZM10.009 3.75C11.526 3.75 12.759 4.983 12.759 6.5C12.759 8.017 11.526 9.25 10.009 9.25C8.49203 9.25 7.25903 8.017 7.25903 6.5C7.25903 4.983 8.49203 3.75 10.009 3.75ZM12.881 13.8101C12.629 13.7691 12.341 13.75 12 13.75H8C4.057 13.75 3.75 17.019 3.75 18.02C3.75 19.583 4.423 20.25 6 20.25H11C11.414 20.25 11.75 20.586 11.75 21C11.75 21.414 11.414 21.75 11 21.75H6C3.582 21.75 2.25 20.425 2.25 18.02C2.25 15.358 3.756 12.25 8 12.25H12C12.421 12.25 12.787 12.276 13.119 12.33C13.528 12.395 13.807 12.78 13.74 13.189C13.675 13.598 13.28 13.8751 12.881 13.8101ZM22.53 21.47L20.699 19.639C21.15 18.983 21.417 18.19 21.417 17.334C21.417 15.083 19.585 13.251 17.333 13.251C15.082 13.251 13.25 15.083 13.25 17.334C13.25 19.585 15.082 21.417 17.333 21.417C18.188 21.417 18.9809 21.15 19.6379 20.699L21.469 22.531C21.615 22.677 21.807 22.751 21.999 22.751C22.191 22.751 22.3831 22.678 22.5291 22.531C22.8231 22.237 22.823 21.763 22.53 21.47ZM14.75 17.333C14.75 15.909 15.909 14.75 17.333 14.75C18.758 14.75 19.917 15.909 19.917 17.333C19.917 18.757 18.758 19.916 17.333 19.916C15.909 19.917 14.75 18.758 14.75 17.333Z" fill="currentColor"/>
</svg>
